X:48
T:Mrs. Leith (of Glenkendy's) Reel
C:R. Petrie
S:Petrie's Second Collection of Strathspey Reels and Country Dances &c.
Z:Steve Wyrick , 6/11/04
N:Petrie's Second Collection, page 17
L:1/8
M:C
R:Reel
K:A
e|(c/B/A) EA EAcA|(d/c/B) FB FBdB|(c/B/A) EA EAcA|(e/f/g) ae cAA:|
f|eATc>A     eAAa|fBTd>B     fBBa|eATc>A     eAAa|faea       cAAf|
  eATc>A     eAAa|fBTd>B     fBBg|afge       fdec|dBEe       cAA|]
